images_sukapura_svg/cmd/32/searchdialog.svg

<svg viewBox="0 0 32 32" xmlns="http://www.w3.org/2000/svg" xmlns:xlink="http://www.w3.org/1999/xlink"><linearGradient id="a" gradientUnits="userSpaceOnUse" x1="-.833197" x2="-.833197" y1="25.406162" y2="10.406162"><stop offset="0" stop-color="#0040dd"/><stop offset="1" stop-color="#0a84ff"/></linearGradient><path d="m19 12-15 14" fill="none" stroke="#616165" stroke-linecap="round" stroke-width="4"/><path d="m19 3c-.087731 0-.172638.0111783-.259766.0136719-.213548.0059097-.426515.0104315-.636718.03125-.071224.0070477-.140212.0225514-.210938.03125-.225536.0277986-.451183.0571484-.671875.1015625-.105323.0211194-.206588.0514104-.310547.0761718-.17823.0425771-.356939.083596-.53125.1367188-.138502.0421251-.27262.0940426-.408203.1425781-.136667.0489865-.27448.0950108-.408203.1503907-.141272.0584527-.276524.1260741-.414062.1914062-.126192.0599411-.253915.1160271-.376954.1816406-.119555.0637924-.233348.1361235-.349609.2050782-.135156.0800745-.271686.157234-.402344.2441406-.103817.069144-.202014.1454681-.302734.21875-.132291.0961042-.265707.1898631-.392578.2929687-.088433.0719794-.170261.1513377-.25586.2265625-.136257.1195491-.273404.2376055-.402343.3652344-.059881.0593532-.113673.1245416-.171875.1855469-.139109.1456203-.278878.2903696-.408203.4453125-.059455.0712824-.112657.1475788-.169922.2207031-.123553.1576771-.246245.3162325-.359375.4824219-.039811.0584772-.074824.1202345-.113282.1796875-.118442.1831473-.234534.3681323-.339843.5605469-.03889.0709749-.072359.1446755-.109375.2167968-.0942.1837901-.187745.3672909-.269532.5585938-.044525.1039289-.080413.212459-.121093.3183594-.063595.1659173-.129587.3310995-.183594.5019531-.039556.1248182-.067369.2537508-.101563.3808593-.043413.1617201-.090364.3207746-.125.4863278-.026847.128235-.043128.260448-.064453.390625-.025206.153444-.056714.304637-.074218.460938-.001766.015757-.000288.031132-.001954.046875-.033161.314105-.052734.632183-.052734.955078 0 4.766746 3.708735 8.656827 8.396484 8.96875.031913-.094759.081347-.177424.117188-.269531.025388.095593.064755.183455.085937.28125.283491.012792.565123.011473.84375-.001953.224066-.688936.542777-1.318515.972657-1.869141.93264-1.201368 2.311657-1.880859 3.828125-1.880859.641498 0 1.243839.137568 1.808593.349609.041335-.052062.078931-.107133.119141-.160156v-3.417969a1.0178898 1.0178898 0 0 1 1.017578-1.017578h.753906c.034218-.312105.05057-.622366.052735-.929688.000122-.017832.003906-.03487.003906-.052734 0-.1451-.014694-.286268-.021484-.429688-.006915-.147515-.009379-.295531-.023438-.441406-.014138-.147049-.039418-.290651-.060547-.435547-.021757-.148628-.039331-.298855-.068359-.445312-.036253-.183709-.085564-.3615083-.132813-.5410158-.026236-.0993718-.04662-.2007161-.076171-.2988281-.062802-.209021-.137558-.4129174-.214844-.6152343-.025737-.0672794-.046911-.1365822-.074219-.203125-.083532-.2037888-.179614-.3997248-.277344-.5957032-.031993-.0641608-.060266-.1300384-.09375-.1933594-.09486-.1793323-.200273-.351544-.30664-.5234374-.046895-.0758634-.089584-.1541159-.138672-.2285157-.108687-.1645343-.226739-.3217788-.345703-.4785156-.05513-.0727431-.106763-.1477107-.164063-.21875-.111429-.1379426-.232325-.267387-.351562-.3984375-.079401-.0874033-.15547-.1774395-.238282-.2617188-.098555-.1001635-.203517-.1935811-.30664-.2890624-.110458-.1024131-.21834-.2077734-.333985-.3046876-.107121-.0896781-.220759-.1711604-.332031-.2558593-.117753-.0896934-.233091-.1816376-.355469-.265625-.118265-.0811599-.242989-.1529518-.365234-.2285157-.124464-.0769122-.246407-.1575326-.375-.2285156-.138807-.0766928-.282615-.1434403-.425781-.2128906-.116505-.0564377-.230191-.1164181-.34961-.1679688-.176259-.0762298-.359131-.1400097-.541015-.2050781-.094129-.0336068-.185584-.0729423-.28125-.1035156-.196298-.062869-.397703-.1106551-.59961-.1601563-.090555-.0221743-.177808-.0508535-.269531-.0703124-.208112-.0441621-.421611-.074011-.634765-.1035157-.081351-.0113386-.16006-.0298641-.242188-.0390625-.009182-.0010284-.018165-.0009531-.027344-.0019531-.167208-.0179865-.337989-.0225504-.507812-.03125-.143329-.007548-.28749-.0207309-.429688-.0214844-.011864-.0000459-.023281-.0019531-.035156-.0019531z" fill="#646464"/><path d="m19 5a7 7 0 0 0 -.599609.0292969 7 7 0 0 0 -.345703.0429687 7 7 0 0 0 -.335938.0507813 7 7 0 0 0 -.378906.0839843 7 7 0 0 0 -.298828.078125 7 7 0 0 0 -.363282.1191407 7 7 0 0 0 -.300781.1113281 7 7 0 0 0 -.324219.1445312 7 7 0 0 0 -.324218.15625 7 7 0 0 0 -.28711.1640626 7 7 0 0 0 -.300781.1855468 7 7 0 0 0 -.306641.21875 7 7 0 0 0 -.257812.1972656 7 7 0 0 0 -.269531.234375 7 7 0 0 0 -.253907.2363282 7 7 0 0 0 -.236328.2539062 7 7 0 0 0 -.234375.2695313 7 7 0 0 0 -.197265.2578125 7 7 0 0 0 -.21875.3066406 7 7 0 0 0 -.185547.3007812 7 7 0 0 0 -.164063.2871094 7 7 0 0 0 -.15625.3242188 7 7 0 0 0 -.144531.3242187 7 7 0 0 0 -.111328.3007813 7 7 0 0 0 -.119141.3632816 7 7 0 0 0 -.078125.298828 7 7 0 0 0 -.083984.378906 7 7 0 0 0 -.050781.335938 7 7 0 0 0 -.042969.345703 7 7 0 0 0 -.029297.599609 7 7 0 0 0 .021484.410156 7 7 0 0 0 .03125.402344 7 7 0 0 0 .039063.263672 7 7 0 0 0 .082031.449219 7 7 0 0 0 .048828.193359 7 7 0 0 0 .140625.486328 7 7 0 0 0 .060547.166016 7 7 0 0 0 .199219.5 7 7 0 0 0 .058594.121094 7 7 0 0 0 .263671.507812 7 7 0 0 0 .048829.080078 7 7 0 0 0 .339843.519531 7 7 0 0 0 .03125.041016 7 7 0 0 0 .40625.501953 7 7 0 0 0 .039063.042969 7 7 0 0 0 .457031.462891 7 7 0 0 0 .023438.019531 7 7 0 0 0 .521484.43164 7 7 0 0 0 3.605469 1.373047 7 7 0 0 0 .007812 0 7 7 0 0 0 .574219.027344 7 7 0 0 0 .574219-.027344 7 7 0 0 0 .007812 0 7 7 0 0 0 1.123047-.195312c.765885-.826944 1.764989-1.349957 2.871094-1.5a7 7 0 0 0 .132812-.109375 7 7 0 0 0 .023438-.019531 7 7 0 0 0 .457031-.462891 7 7 0 0 0 .039063-.042969 7 7 0 0 0 .40625-.501953 7 7 0 0 0 .03125-.041016 7 7 0 0 0 .339843-.519531 7 7 0 0 0 .048829-.080078 7 7 0 0 0 .263671-.507812 7 7 0 0 0 .058594-.121094 7 7 0 0 0 .199219-.5 7 7 0 0 0 .060547-.166016 7 7 0 0 0 .140625-.486328 7 7 0 0 0 .048828-.193359 7 7 0 0 0 .082031-.449219 7 7 0 0 0 .039063-.263672 7 7 0 0 0 .03125-.402344 7 7 0 0 0 .021484-.410156 7 7 0 0 0 -.029297-.599609 7 7 0 0 0 -.042969-.345703 7 7 0 0 0 -.050781-.335938 7 7 0 0 0 -.083984-.378906 7 7 0 0 0 -.078125-.298828 7 7 0 0 0 -.119141-.3632816 7 7 0 0 0 -.111328-.3007813 7 7 0 0 0 -.144531-.3242187 7 7 0 0 0 -.15625-.3242188 7 7 0 0 0 -.164063-.2871094 7 7 0 0 0 -.185547-.3007812 7 7 0 0 0 -.21875-.3066406 7 7 0 0 0 -.197265-.2578125 7 7 0 0 0 -.234375-.2695313 7 7 0 0 0 -.236328-.2539062 7 7 0 0 0 -.253907-.2363282 7 7 0 0 0 -.269531-.234375 7 7 0 0 0 -.257812-.1972656 7 7 0 0 0 -.306641-.21875 7 7 0 0 0 -.300781-.1855468 7 7 0 0 0 -.28711-.1640626 7 7 0 0 0 -.324218-.15625 7 7 0 0 0 -.324219-.1445312 7 7 0 0 0 -.300781-.1113281 7 7 0 0 0 -.363282-.1191407 7 7 0 0 0 -.298828-.078125 7 7 0 0 0 -.378906-.0839843 7 7 0 0 0 -.335938-.0507813 7 7 0 0 0 -.345703-.0429687 7 7 0 0 0 -.599609-.0292969z" fill="#fff"/><path d="m21.356641 16.781919q-.156559-.313118-.254409-1.115484-1.262258 1.311184-3.013765 1.311184-1.565592 0-2.573443-.880646-.998065-.890431-.998065-2.250539 0-1.653657 1.252474-2.563658 1.262259-.919786 3.542153-.919786h1.761292v-.8317205q0-.9491404-.567528-1.5068827-.567527-.5675273-1.673227-.5675273-.96871 0-1.624302.4892477-.655592.4892476-.655592 1.1839792h-1.820001q0-.7925811.557743-1.5264526.567527-.7436564 1.526452-1.1741943.96871-.4305379 2.123335-.4305379 1.829786 0 2.866991.9197855 1.037205.9100006 1.076345 2.5147329v4.872906q0 1.457958.371828 2.319034v.156559zm-3.00398-1.379678q.851291 0 1.614517-.440323.763226-.440323 1.1057-1.144839v-2.17226h-1.418819q-3.326883 0-3.326883 1.947206 0 .851291.567527 1.330753.567527.479463 1.457958.479463z" fill="#616165"/><path d="m20.063649 23.647346q0-2.436453 1.154625-3.913981 1.154624-1.487313 3.02355-1.487313 1.859141 0 2.945271 1.272044v-5.518714h1.810216v15.029688h-1.663442l-.08806-1.135055q-1.08613 1.330754-3.023551 1.330754-1.839571 0-3.00398-1.506883-1.154625-1.506882-1.154625-3.933551zm1.810217.205484q0 1.800431.743656 2.818066.743657 1.017635 2.05484 1.017635 1.722152 0 2.514733-1.546022v-4.863122q-.812151-1.497097-2.495163-1.497097-1.330753 0-2.07441 1.02742-.743656 1.02742-.743656 3.04312z" fill="url(#a)" transform="translate(.002689 .000618)"/></svg>

<?xml version="1.0" encoding="UTF-8" standalone="no"?>
<svg
   xmlns:dc="http://purl.org/dc/elements/1.1/"
   xmlns:cc="http://creativecommons.org/ns#"
   xmlns:rdf="http://www.w3.org/1999/02/22-rdf-syntax-ns#"
   xmlns:svg="http://www.w3.org/2000/svg"
   xmlns="http://www.w3.org/2000/svg"
   xmlns:xlink="http://www.w3.org/1999/xlink"
   xmlns:sodipodi="http://sodipodi.sourceforge.net/DTD/sodipodi-0.dtd"
   xmlns:inkscape="http://www.inkscape.org/namespaces/inkscape"
   viewBox="0 0 32 32"
   version="1.1"
   id="svg12"
   sodipodi:docname="searchdialog.svg"
   inkscape:export-filename="/home/rizmut/Dokumen/Rizmut/Github/libreoffice-style-sukapura/images_sukapura/cmd/32/searchdialog.png"
   inkscape:export-xdpi="96"
   inkscape:export-ydpi="96"
   inkscape:version="0.92.3 (unknown)">
  <metadata
     id="metadata18">
    <rdf:RDF>
      <cc:Work
         rdf:about="">
        <dc:format>image/svg+xml</dc:format>
        <dc:type
           rdf:resource="http://purl.org/dc/dcmitype/StillImage" />
      </cc:Work>
    </rdf:RDF>
  </metadata>
  <defs
     id="defs16">
    <linearGradient
       gradientTransform="translate(-25.830508,-3.5932203)"
       id="a"
       gradientUnits="userSpaceOnUse"
       x1="14"
       x2="13.79661"
       y1="22"
       y2="2.1355929">
      <stop
         offset="0"
         stop-color="#0040dd"
         id="stop2" />
      <stop
         offset="1"
         stop-color="#0a84ff"
         id="stop4" />
    </linearGradient>
    <linearGradient
       inkscape:collect="always"
       xlink:href="#a"
       id="linearGradient879"
       x1="24.997311"
       y1="28.999382"
       x2="24.997311"
       y2="13.999382"
       gradientUnits="userSpaceOnUse" />
  </defs>
  <sodipodi:namedview
     pagecolor="#ffffff"
     bordercolor="#666666"
     borderopacity="1"
     objecttolerance="10"
     gridtolerance="10"
     guidetolerance="10"
     inkscape:pageopacity="0"
     inkscape:pageshadow="2"
     inkscape:window-width="1366"
     inkscape:window-height="699"
     id="namedview14"
     showgrid="true"
     inkscape:zoom="8"
     inkscape:cx="29.263411"
     inkscape:cy="1.0975204"
     inkscape:window-x="0"
     inkscape:window-y="0"
     inkscape:window-maximized="1"
     inkscape:current-layer="svg12">
    <inkscape:grid
       type="xygrid"
       id="grid828" />
  </sodipodi:namedview>
  <path
     d="m19 12-15 14"
     fill="none"
     stroke="#616165"
     stroke-linecap="round"
     stroke-width="4"
     id="path2" />
  <path
     style="fill:#646464;fill-opacity:1"
     d="M 19 3 C 18.912269 3 18.827362 3.0111783 18.740234 3.0136719 C 18.526686 3.0195816 18.313719 3.0241034 18.103516 3.0449219 C 18.032292 3.0519696 17.963304 3.0674733 17.892578 3.0761719 C 17.667042 3.1039705 17.441395 3.1333203 17.220703 3.1777344 C 17.11538 3.1988538 17.014115 3.2291448 16.910156 3.2539062 C 16.731926 3.2964833 16.553217 3.3375022 16.378906 3.390625 C 16.240404 3.4327501 16.106286 3.4846676 15.970703 3.5332031 C 15.834036 3.5821896 15.696223 3.6282139 15.5625 3.6835938 C 15.421228 3.7420465 15.285976 3.8096679 15.148438 3.875 C 15.022246 3.9349411 14.894523 3.9910271 14.771484 4.0566406 C 14.651929 4.120433 14.538136 4.1927641 14.421875 4.2617188 C 14.286719 4.3417933 14.150189 4.4189528 14.019531 4.5058594 C 13.915714 4.5750034 13.817517 4.6513275 13.716797 4.7246094 C 13.584506 4.8207136 13.45109 4.9144725 13.324219 5.0175781 C 13.235786 5.0895575 13.153958 5.1689158 13.068359 5.2441406 C 12.932102 5.3636897 12.794955 5.4817461 12.666016 5.609375 C 12.606135 5.6687282 12.552343 5.7339166 12.494141 5.7949219 C 12.355032 5.9405422 12.215263 6.0852915 12.085938 6.2402344 C 12.026483 6.3115168 11.973281 6.3878132 11.916016 6.4609375 C 11.792463 6.6186146 11.669771 6.77717 11.556641 6.9433594 C 11.51683 7.0018366 11.481817 7.0635939 11.443359 7.1230469 C 11.324917 7.3061942 11.208825 7.4911792 11.103516 7.6835938 C 11.064626 7.7545687 11.031157 7.8282693 10.994141 7.9003906 C 10.899941 8.0841807 10.806396 8.2676815 10.724609 8.4589844 C 10.680084 8.5629133 10.644196 8.6714434 10.603516 8.7773438 C 10.539921 8.9432611 10.473929 9.1084433 10.419922 9.2792969 C 10.380366 9.4041151 10.352553 9.5330477 10.318359 9.6601562 C 10.274946 9.8218763 10.227995 9.9809308 10.193359 10.146484 C 10.166512 10.274719 10.150231 10.406932 10.128906 10.537109 C 10.1037 10.690553 10.072192 10.841746 10.054688 10.998047 C 10.052922 11.013804 10.0544 11.029179 10.052734 11.044922 C 10.019573 11.359027 10 11.677105 10 12 C 10 16.766746 13.708735 20.656827 18.396484 20.96875 C 18.428397 20.873991 18.477831 20.791326 18.513672 20.699219 C 18.53906 20.794812 18.578427 20.882674 18.599609 20.980469 C 18.8831 20.993261 19.164732 20.991942 19.443359 20.978516 C 19.667425 20.28958 19.986136 19.660001 20.416016 19.109375 C 21.348656 17.908007 22.727673 17.228516 24.244141 17.228516 C 24.885639 17.228516 25.48798 17.366084 26.052734 17.578125 C 26.094069 17.526063 26.131665 17.470992 26.171875 17.417969 L 26.171875 14 A 1.0178898 1.0178898 0 0 1 27.189453 12.982422 L 27.943359 12.982422 C 27.977577 12.670317 27.993929 12.360056 27.996094 12.052734 C 27.996216 12.034902 28 12.017864 28 12 C 28 11.8549 27.985306 11.713732 27.978516 11.570312 C 27.971601 11.422797 27.969137 11.274781 27.955078 11.128906 C 27.94094 10.981857 27.91566 10.838255 27.894531 10.693359 C 27.872774 10.544731 27.8552 10.394504 27.826172 10.248047 C 27.789919 10.064338 27.740608 9.8865387 27.693359 9.7070312 C 27.667123 9.6076594 27.646739 9.5063151 27.617188 9.4082031 C 27.554386 9.1991821 27.47963 8.9952857 27.402344 8.7929688 C 27.376607 8.7256894 27.355433 8.6563866 27.328125 8.5898438 C 27.244593 8.386055 27.148511 8.190119 27.050781 7.9941406 C 27.018788 7.9299798 26.990515 7.8641022 26.957031 7.8007812 C 26.862171 7.6214489 26.756758 7.4492372 26.650391 7.2773438 C 26.603496 7.2014804 26.560807 7.1232279 26.511719 7.0488281 C 26.403032 6.8842938 26.28498 6.7270493 26.166016 6.5703125 C 26.110886 6.4975694 26.059253 6.4226018 26.001953 6.3515625 C 25.890524 6.2136199 25.769628 6.0841755 25.650391 5.953125 C 25.57099 5.8657217 25.494921 5.7756855 25.412109 5.6914062 C 25.313554 5.5912427 25.208592 5.4978251 25.105469 5.4023438 C 24.995011 5.2999307 24.887129 5.1945704 24.771484 5.0976562 C 24.664363 5.0079781 24.550725 4.9264958 24.439453 4.8417969 C 24.3217 4.7521035 24.206362 4.6601593 24.083984 4.5761719 C 23.965719 4.495012 23.840995 4.4232201 23.71875 4.3476562 C 23.594286 4.270744 23.472343 4.1901236 23.34375 4.1191406 C 23.204943 4.0424478 23.061135 3.9757003 22.917969 3.90625 C 22.801464 3.8498123 22.687778 3.7898319 22.568359 3.7382812 C 22.3921 3.6620514 22.209228 3.5982715 22.027344 3.5332031 C 21.933215 3.4995963 21.84176 3.4602608 21.746094 3.4296875 C 21.549796 3.3668185 21.348391 3.3190324 21.146484 3.2695312 C 21.055929 3.2473569 20.968676 3.2186777 20.876953 3.1992188 C 20.668841 3.1550567 20.455342 3.1252078 20.242188 3.0957031 C 20.160837 3.0843645 20.082128 3.065839 20 3.0566406 C 19.990818 3.0556122 19.981835 3.0556875 19.972656 3.0546875 C 19.805448 3.036701 19.634667 3.0321371 19.464844 3.0234375 C 19.321515 3.0158895 19.177354 3.0027066 19.035156 3.0019531 C 19.023292 3.0019072 19.011875 3 19 3 z "
     id="path4" />
  <path
     style="fill:#ffffff"
     d="M 19 5 A 7 7 0 0 0 18.400391 5.0292969 A 7 7 0 0 0 18.054688 5.0722656 A 7 7 0 0 0 17.71875 5.1230469 A 7 7 0 0 0 17.339844 5.2070312 A 7 7 0 0 0 17.041016 5.2851562 A 7 7 0 0 0 16.677734 5.4042969 A 7 7 0 0 0 16.376953 5.515625 A 7 7 0 0 0 16.052734 5.6601562 A 7 7 0 0 0 15.728516 5.8164062 A 7 7 0 0 0 15.441406 5.9804688 A 7 7 0 0 0 15.140625 6.1660156 A 7 7 0 0 0 14.833984 6.3847656 A 7 7 0 0 0 14.576172 6.5820312 A 7 7 0 0 0 14.306641 6.8164062 A 7 7 0 0 0 14.052734 7.0527344 A 7 7 0 0 0 13.816406 7.3066406 A 7 7 0 0 0 13.582031 7.5761719 A 7 7 0 0 0 13.384766 7.8339844 A 7 7 0 0 0 13.166016 8.140625 A 7 7 0 0 0 12.980469 8.4414062 A 7 7 0 0 0 12.816406 8.7285156 A 7 7 0 0 0 12.660156 9.0527344 A 7 7 0 0 0 12.515625 9.3769531 A 7 7 0 0 0 12.404297 9.6777344 A 7 7 0 0 0 12.285156 10.041016 A 7 7 0 0 0 12.207031 10.339844 A 7 7 0 0 0 12.123047 10.71875 A 7 7 0 0 0 12.072266 11.054688 A 7 7 0 0 0 12.029297 11.400391 A 7 7 0 0 0 12 12 A 7 7 0 0 0 12.021484 12.410156 A 7 7 0 0 0 12.052734 12.8125 A 7 7 0 0 0 12.091797 13.076172 A 7 7 0 0 0 12.173828 13.525391 A 7 7 0 0 0 12.222656 13.71875 A 7 7 0 0 0 12.363281 14.205078 A 7 7 0 0 0 12.423828 14.371094 A 7 7 0 0 0 12.623047 14.871094 A 7 7 0 0 0 12.681641 14.992188 A 7 7 0 0 0 12.945312 15.5 A 7 7 0 0 0 12.994141 15.580078 A 7 7 0 0 0 13.333984 16.099609 A 7 7 0 0 0 13.365234 16.140625 A 7 7 0 0 0 13.771484 16.642578 A 7 7 0 0 0 13.810547 16.685547 A 7 7 0 0 0 14.267578 17.148438 A 7 7 0 0 0 14.291016 17.167969 A 7 7 0 0 0 14.8125 17.599609 A 7 7 0 0 0 18.417969 18.972656 A 7 7 0 0 0 18.425781 18.972656 A 7 7 0 0 0 19 19 A 7 7 0 0 0 19.574219 18.972656 A 7 7 0 0 0 19.582031 18.972656 A 7 7 0 0 0 20.705078 18.777344 C 21.470963 17.9504 22.470067 17.427387 23.576172 17.277344 A 7 7 0 0 0 23.708984 17.167969 A 7 7 0 0 0 23.732422 17.148438 A 7 7 0 0 0 24.189453 16.685547 A 7 7 0 0 0 24.228516 16.642578 A 7 7 0 0 0 24.634766 16.140625 A 7 7 0 0 0 24.666016 16.099609 A 7 7 0 0 0 25.005859 15.580078 A 7 7 0 0 0 25.054688 15.5 A 7 7 0 0 0 25.318359 14.992188 A 7 7 0 0 0 25.376953 14.871094 A 7 7 0 0 0 25.576172 14.371094 A 7 7 0 0 0 25.636719 14.205078 A 7 7 0 0 0 25.777344 13.71875 A 7 7 0 0 0 25.826172 13.525391 A 7 7 0 0 0 25.908203 13.076172 A 7 7 0 0 0 25.947266 12.8125 A 7 7 0 0 0 25.978516 12.410156 A 7 7 0 0 0 26 12 A 7 7 0 0 0 25.970703 11.400391 A 7 7 0 0 0 25.927734 11.054688 A 7 7 0 0 0 25.876953 10.71875 A 7 7 0 0 0 25.792969 10.339844 A 7 7 0 0 0 25.714844 10.041016 A 7 7 0 0 0 25.595703 9.6777344 A 7 7 0 0 0 25.484375 9.3769531 A 7 7 0 0 0 25.339844 9.0527344 A 7 7 0 0 0 25.183594 8.7285156 A 7 7 0 0 0 25.019531 8.4414062 A 7 7 0 0 0 24.833984 8.140625 A 7 7 0 0 0 24.615234 7.8339844 A 7 7 0 0 0 24.417969 7.5761719 A 7 7 0 0 0 24.183594 7.3066406 A 7 7 0 0 0 23.947266 7.0527344 A 7 7 0 0 0 23.693359 6.8164062 A 7 7 0 0 0 23.423828 6.5820312 A 7 7 0 0 0 23.166016 6.3847656 A 7 7 0 0 0 22.859375 6.1660156 A 7 7 0 0 0 22.558594 5.9804688 A 7 7 0 0 0 22.271484 5.8164062 A 7 7 0 0 0 21.947266 5.6601562 A 7 7 0 0 0 21.623047 5.515625 A 7 7 0 0 0 21.322266 5.4042969 A 7 7 0 0 0 20.958984 5.2851562 A 7 7 0 0 0 20.660156 5.2070312 A 7 7 0 0 0 20.28125 5.1230469 A 7 7 0 0 0 19.945312 5.0722656 A 7 7 0 0 0 19.599609 5.0292969 A 7 7 0 0 0 19 5 z "
     id="path887" />
  <g
     aria-label="a"
     style="font-style:normal;font-weight:normal;font-size:20.03958321px;line-height:1.25;font-family:sans-serif;letter-spacing:0px;word-spacing:0px;fill:#616165;fill-opacity:1;stroke:none;stroke-width:0.50098956"
     id="text832">
    <path
       d="m 21.356641,16.781919 q -0.156559,-0.313118 -0.254409,-1.115484 -1.262258,1.311184 -3.013765,1.311184 -1.565592,0 -2.573443,-0.880646 -0.998065,-0.890431 -0.998065,-2.250539 0,-1.653657 1.252474,-2.563658 1.262259,-0.919786 3.542153,-0.919786 h 1.761292 V 9.5312695 q 0,-0.9491404 -0.567528,-1.5068827 -0.567527,-0.5675273 -1.673227,-0.5675273 -0.96871,0 -1.624302,0.4892477 -0.655592,0.4892476 -0.655592,1.1839792 h -1.820001 q 0,-0.7925811 0.557743,-1.5264526 0.567527,-0.7436564 1.526452,-1.1741943 0.96871,-0.4305379 2.123335,-0.4305379 1.829786,0 2.866991,0.9197855 1.037205,0.9100006 1.076345,2.5147329 v 4.872906 q 0,1.457958 0.371828,2.319034 v 0.156559 z m -3.00398,-1.379678 q 0.851291,0 1.614517,-0.440323 0.763226,-0.440323 1.1057,-1.144839 v -2.17226 h -1.418819 q -3.326883,0 -3.326883,1.947206 0,0.851291 0.567527,1.330753 0.567527,0.479463 1.457958,0.479463 z"
       style="font-style:normal;font-variant:normal;font-weight:normal;font-stretch:normal;font-family:Roboto;-inkscape-font-specification:Roboto;fill:#616165;fill-opacity:1;stroke-width:0.50098956"
       id="path881" />
  </g>
  <g
     aria-label="d"
     style="font-style:normal;font-weight:normal;font-size:20.03958321px;line-height:1.25;font-family:sans-serif;letter-spacing:0px;word-spacing:0px;fill:url(#linearGradient879);fill-opacity:1;stroke:none;stroke-width:0.50098956"
     id="text854"
     transform="translate(0.002689,6.18e-4)">
    <path
       d="m 20.063649,23.647346 q 0,-2.436453 1.154625,-3.913981 1.154624,-1.487313 3.02355,-1.487313 1.859141,0 2.945271,1.272044 v -5.518714 h 1.810216 V 29.02907 h -1.663442 l -0.08806,-1.135055 q -1.08613,1.330754 -3.023551,1.330754 -1.839571,0 -3.00398,-1.506883 -1.154625,-1.506882 -1.154625,-3.933551 z m 1.810217,0.205484 q 0,1.800431 0.743656,2.818066 0.743657,1.017635 2.05484,1.017635 1.722152,0 2.514733,-1.546022 v -4.863122 q -0.812151,-1.497097 -2.495163,-1.497097 -1.330753,0 -2.07441,1.02742 -0.743656,1.02742 -0.743656,3.04312 z"
       style="font-style:normal;font-variant:normal;font-weight:normal;font-stretch:normal;font-family:Roboto;-inkscape-font-specification:Roboto;fill:url(#linearGradient879);fill-opacity:1.0;stroke-width:0.50098956"
       id="path856"
       inkscape:connector-curvature="0" />
  </g>
</svg>
